www/assets/icons/schedule_send.svg

<svg xmlns="http://www.w3.org/2000/svg" width="24" height="24" viewBox="0 0 24 24" fill='currentColor'><path d="M16 11.5h-1.5v4l3 2 .75-1.23L16 14.75zM15.5 8l-14-6v7l9 2-9 2v7l7.27-3.11C9.59 19.83 12.29 22 15.5 22c3.86 0 7-3.14 7-7s-3.14-7-7-7m0 12c-2.75 0-4.98-2.22-5-4.97v-.07a5.01 5.01 0 0 1 5-4.97c2.76 0 5 2.24 5 5S18.26 20 15.5 20"/></svg>

<svg width="24" height="24" viewBox="0 0 24 24" xmlns="http://www.w3.org/2000/svg" fill='currentColor'><path d="M16 11.5H14.5V15.5L17.5 17.5L18.25 16.27L16 14.75V11.5ZM15.5 8L1.5 2V9L10.5 11L1.5 13V20L8.77 16.89C9.59 19.83 12.29 22 15.5 22C19.36 22 22.5 18.86 22.5 15C22.5 11.14 19.36 8 15.5 8ZM15.5 20C12.75 20 10.52 17.78 10.5 15.03V14.96C10.52 12.22 12.75 9.99 15.5 9.99C18.26 9.99 20.5 12.23 20.5 14.99C20.5 17.75 18.26 20 15.5 20Z"/></svg>
